X:1
T:Title
%%score { ( 1 2 5 ) | ( 3 4 6 ) }
L:1/8
Q:1/4=100
M:4/4
K:Eb
V:1 treble nm="Grand Piano"
V:2 treble 
V:5 treble 
V:3 bass 
V:4 bass 
V:6 bass 
V:1
 B,CDE A2 G2 | [A,CF]4 C4 | z4 B4 | G6 z2 | G,-[G,-C][G,-D][G,E] A2 G2 | [A,CF]4 C2 FF | %6
w: Mrs.~R.~R.~Forman * * * * *||||||
 [=A,EF]3 F G2 F2 | B2- [DB-][EB-] [FB]2 z2 | [GBe][GBe][EGBd][GBd] [EGc]2 [EGB]2 | [Ad]4 [DA]4 | %10
w: ||||
 [Ad][Ad][DAc][Ac] [DGB]2 [DFA]2 | G6 EE | c3 c B2 B2 | A4 G2 GG | F F3 G3 F | [DB]6 z2 | %16
w: ||||||
 [Ge]2 [Gd][Gd] [Gc]2 [GB]2 | [Ad]4 [B,DA]3 [DA] | [Ad]4[K:bass][K:treble] z4 | [_Gc]4 [B,=GB]4 | %20
w: ||||
 [CGc]2 [CGB][CGB] [CFA]2 [CG]2 | [CGB]2 [CFA]2 [B,EG]2 [A,CF]2 | [G,B,E] [B,EG]3 [B,DG]3 [A,DF] | %23
w: |||
 [G,B,E]6 z2 |] %24
w: |
V:2
 G,4 z4 | x8 | DE=EF z2 z _G | z EDC B,2 z2 | .B,2 z2 z4 | x8 | x8 | D2 z2 z4 | x8 | x8 | x8 | x8 | %12
 x8 | x8 | x8 | x8 | x8 | x8 | z2[K:bass] z[K:treble] c [GB]2 [FA]2 | x8 | x8 | x8 | x8 | x8 |] %24
V:3
 z4 [CE]2 [B,E]2 | z4 A,4 | z4 D4 | .E2 z2 z4 | z4 [CE]2 [B,E]2 | z4 A,2 z2 | %6
 z2 z [=A,E] [A,E]2 [A,E]2 | [F,B,]2 F,G, A,2 z2 | EE z E E,2 B,,2 | [B,-D]4 B,4 | %10
 DD z D D,2 B,,2 | [E,B,E]6 [E,G,][E,G,] | [A,E]3 [A,E] [G,B,E]2 [G,B,E]2 | %13
 [F,B,D]4 [E,B,E]2 [E,B,E][E,B,E] | [F,A,CE] [F,A,CE]3 [F,B,CE]3 [F,A,CE] | [B,,F,]6 z2 | %16
 [E,B,]2 [B,,B,][B,,B,] [E,B,]2 [B,,B,]2 | F,2 B,,2 F,2 z B, | B,3 [B,A] [D,B,]2 [B,,B,]2 | %19
 [E,=A,]4 E,4 | =E,2 C,C, D,2 E,2 | F,2 F,,2 G,,2 A,,2 | B,, B,,3 B,,3 B,, | E,6 z2 |] %24
V:4
 [E,,E,]8 | A,,8 | [F,B,]4 F,2 z2 | [E,-B,]4 E,2 z2 | [E,,E,]8 | A,,6 z2 | [F,,F,]8 | B,,6 z2 | %8
 [E,B,-]2 B,6 | F,2 B,,2 F,2 B,,2 | [F,B,-]2 B,6 | x8 | x8 | x8 | x8 | x8 | x8 | B,4 z2 B,,2 | %18
 F,2 z2 z4 | x8 | x8 | x8 | x8 | x8 |] %24
V:5
 x8 | x8 | z4 z2 B,2 | x8 | x8 | x8 | x8 | x8 | x8 | x8 | x8 | x8 | x8 | x8 | x8 | x8 | x8 | x8 | %18
 z2[K:bass] B,,2[K:treble] z4 | x8 | x8 | x8 | x8 | x8 |] %24
V:6
 x8 | x8 | B,,8 | x8 | x8 | x8 | x8 | x8 | z2 B,,2 z4 | x8 | z2 B,,2 z4 | x8 | x8 | x8 | x8 | x8 | %16
 x8 | x8 | x8 | x8 | x8 | x8 | x8 | x8 |] %24

